**harm	**harte	**timestamp	**phrase	**leadinstrument	**kern
*M4/4	*M4/4	*	*	*	*
*G:	*G:	*	*	*	*G:
1r;	N	0	.	r	1r;
=1	=1	=1	=1	=1	=1
*>A_intro	*>A_intro	*>A_intro	*>A_intro	*>A_intro	*>A_intro
1-VII	F:maj	0.255	newline	r	1F 1a 1cc
=2	=2	=2	=2	=2	=2
1-VII	F:maj	2.032	.	r	1F 1a 1cc
=3	=3	=3	=3	=3	=3
*>A_verse	*>A_verse	*>A_verse	*>A_verse	*>A_verse	*>A_verse
1I	G:maj	3.808	newline	voice	1G 1b 1dd
=4	=4	=4	=4	=4	=4
1v7	D:min7	5.611	.	voice	1D 1f 1a 1cc
=5	=5	=5	=5	=5	=5
1I	G:maj	7.413	.	voice	1G 1b 1dd
=6	=6	=6	=6	=6	=6
1v7	D:min7	9.216	.	voice	1D 1f 1a 1cc
=7	=7	=7	=7	=7	=7
1I	G:maj	11.019	.	voice	1G 1b 1dd
=8	=8	=8	=8	=8	=8
1v7	D:min7	12.821	.	voice	1D 1f 1a 1cc
=9	=9	=9	=9	=9	=9
1-VII	F:maj	14.624	newline	voice	1F 1a 1cc
=10	=10	=10	=10	=10	=10
1-VII	F:maj	16.461	.	voice	1F 1a 1cc
=11	=11	=11	=11	=11	=11
*>A_verse	*>A_verse	*>A_verse	*>A_verse	*>A_verse	*>A_verse
1I	G:maj	18.299	newline	.	1G 1b 1dd
=12	=12	=12	=12	=12	=12
1v7	D:min7	20.094	.	.	1D 1f 1a 1cc
=13	=13	=13	=13	=13	=13
1I	G:maj	21.889	.	.	1G 1b 1dd
=14	=14	=14	=14	=14	=14
1v7	D:min7	23.684	.	.	1D 1f 1a 1cc
=15	=15	=15	=15	=15	=15
1I	G:maj	25.48	.	.	1G 1b 1dd
=16	=16	=16	=16	=16	=16
1v7	D:min7	27.275	.	.	1D 1f 1a 1cc
=17	=17	=17	=17	=17	=17
1-VII	F:maj	29.07	newline	.	1F 1a 1cc
=18	=18	=18	=18	=18	=18
1-VII	F:maj	30.859	.	.	1F 1a 1cc
=19	=19	=19	=19	=19	=19
*>B_chorus	*>B_chorus	*>B_chorus	*>B_chorus	*>B_chorus	*>B_chorus
1IV	C:maj	32.648	newline	.	1C 1e 1g
=20	=20	=20	=20	=20	=20
1-III	B-:maj	34.462	.	.	1B- 1dd 1ff
=21	=21	=21	=21	=21	=21
1IV	C:maj	36.276	.	.	1C 1e 1g
=22	=22	=22	=22	=22	=22
1-III	B-:maj	38.09	.	.	1B- 1dd 1ff
=23	=23	=23	=23	=23	=23
1IV	C:maj	39.904	newline	.	1C 1e 1g
=24	=24	=24	=24	=24	=24
1-III	B-:maj	41.736	.	.	1B- 1dd 1ff
=25	=25	=25	=25	=25	=25
1-III	B-:maj	43.568	.	.	1B- 1dd 1ff
=26	=26	=26	=26	=26	=26
1V	D:maj	45.4	.	.	1D 1f# 1a
=27	=27	=27	=27	=27	=27
1V	D:maj	47.232	.	.	1D 1f# 1a
=28	=28	=28	=28	=28	=28
*>A_verse	*>A_verse	*>A_verse	*>A_verse	*>A_verse	*>A_verse
1I	G:maj	49.064	newline	.	1G 1b 1dd
=29	=29	=29	=29	=29	=29
1v7	D:min7	50.903	.	.	1D 1f 1a 1cc
=30	=30	=30	=30	=30	=30
1I	G:maj	52.742	.	.	1G 1b 1dd
=31	=31	=31	=31	=31	=31
1v7	D:min7	54.581	.	.	1D 1f 1a 1cc
=32	=32	=32	=32	=32	=32
1I	G:maj	56.42	.	.	1G 1b 1dd
=33	=33	=33	=33	=33	=33
1v7	D:min7	58.259	.	.	1D 1f 1a 1cc
=34	=34	=34	=34	=34	=34
1-VII	F:maj	60.098	newline	.	1F 1a 1cc
=35	=35	=35	=35	=35	=35
1-VII	F:maj	61.875	.	.	1F 1a 1cc
=36	=36	=36	=36	=36	=36
*>A_verse	*>A_verse	*>A_verse	*>A_verse	*>A_verse	*>A_verse
1I	G:maj	63.651	newline	.	1G 1b 1dd
=37	=37	=37	=37	=37	=37
1v7	D:min7	65.467	.	.	1D 1f 1a 1cc
=38	=38	=38	=38	=38	=38
1I	G:maj	67.282	.	.	1G 1b 1dd
=39	=39	=39	=39	=39	=39
1v7	D:min7	69.097	.	.	1D 1f 1a 1cc
=40	=40	=40	=40	=40	=40
1I	G:maj	70.912	.	.	1G 1b 1dd
=41	=41	=41	=41	=41	=41
1v7	D:min7	72.727	.	.	1D 1f 1a 1cc
=42	=42	=42	=42	=42	=42
1-VII	F:maj	74.542	newline	.	1F 1a 1cc
=43	=43	=43	=43	=43	=43
1-VII	F:maj	76.233	.	.	1F 1a 1cc
=44	=44	=44	=44	=44	=44
*>B_chorus	*>B_chorus	*>B_chorus	*>B_chorus	*>B_chorus	*>B_chorus
1IV	C:maj	77.924	newline	.	1C 1e 1g
=45	=45	=45	=45	=45	=45
1-III	B-:maj	79.814	.	.	1B- 1dd 1ff
=46	=46	=46	=46	=46	=46
1IV	C:maj	81.704	.	.	1C 1e 1g
=47	=47	=47	=47	=47	=47
1-III	B-:maj	83.594	.	.	1B- 1dd 1ff
=48	=48	=48	=48	=48	=48
1IV	C:maj	85.484	newline	voice	1C 1e 1g
=49	=49	=49	=49	=49	=49
1-III	B-:maj	87.307	.	voice	1B- 1dd 1ff
=50	=50	=50	=50	=50	=50
1-III	B-:maj	89.13	.	voice	1B- 1dd 1ff
=51	=51	=51	=51	=51	=51
1V	D:maj	90.953	.	voice	1D 1f# 1a
=52	=52	=52	=52	=52	=52
1V	D:maj	92.775	.	voice	1D 1f# 1a
=53	=53	=53	=53	=53	=53
*>C_solo	*>C_solo	*>C_solo	*>C_solo	*>C_solo	*>C_solo
1I	G:maj	94.598	newline	guitar	1G 1b 1dd
=54	=54	=54	=54	=54	=54
1-VII	F:maj	96.318	.	guitar	1F 1a 1cc
=55	=55	=55	=55	=55	=55
1I	G:maj	98.039	.	guitar	1G 1b 1dd
=56	=56	=56	=56	=56	=56
1-VII	F:maj	99.759	.	guitar	1F 1a 1cc
=57	=57	=57	=57	=57	=57
1I	G:maj	101.48	newline	guitar	1G 1b 1dd
=58	=58	=58	=58	=58	=58
1-VII	F:maj	103.184	.	guitar	1F 1a 1cc
=59	=59	=59	=59	=59	=59
1I	G:maj	104.888	.	guitar	1G 1b 1dd
=60	=60	=60	=60	=60	=60
1-VII	F:maj	106.592	.	guitar	1F 1a 1cc
=61	=61	=61	=61	=61	=61
1I	G:maj	108.296	newline	guitar	1G 1b 1dd
=62	=62	=62	=62	=62	=62
1-VII	F:maj	110.021	.	guitar	1F 1a 1cc
=63	=63	=63	=63	=63	=63
1I	G:maj	111.745	.	guitar	1G 1b 1dd
=64	=64	=64	=64	=64	=64
1-VII	F:maj	113.469	.	guitar	1F 1a 1cc
=65	=65	=65	=65	=65	=65
1I	G:maj	115.193	newline	guitar	1G 1b 1dd
=66	=66	=66	=66	=66	=66
1-VII	F:maj	116.968	.	guitar	1F 1a 1cc
=67	=67	=67	=67	=67	=67
1-III	B-:maj	118.742	.	guitar	1B- 1dd 1ff
=68	=68	=68	=68	=68	=68
1V	D:maj	120.516	.	guitar	1D 1f# 1a
=69	=69	=69	=69	=69	=69
1V	D:maj	122.29	.	guitar	1D 1f# 1a
=70	=70	=70	=70	=70	=70
*>A_verse	*>A_verse	*>A_verse	*>A_verse	*>A_verse	*>A_verse
1I	G:maj	124.064	newline	voice	1G 1b 1dd
=71	=71	=71	=71	=71	=71
1v7	D:min7	125.855	.	voice	1D 1f 1a 1cc
=72	=72	=72	=72	=72	=72
1I	G:maj	127.645	.	voice	1G 1b 1dd
=73	=73	=73	=73	=73	=73
1v7	D:min7	129.435	.	voice	1D 1f 1a 1cc
=74	=74	=74	=74	=74	=74
1I	G:maj	131.226	.	voice	1G 1b 1dd
=75	=75	=75	=75	=75	=75
1v7	D:min7	133.016	.	voice	1D 1f 1a 1cc
=76	=76	=76	=76	=76	=76
1-VII	F:maj	134.807	newline	voice	1F 1a 1cc
=77	=77	=77	=77	=77	=77
1-VII	F:maj	136.608	.	voice	1F 1a 1cc
=78	=78	=78	=78	=78	=78
1I	G:maj	138.409	newline	voice	1G 1b 1dd
1r;	N	143.016	.	r	1r;
1r;	N	145.241	.	r	1r;
*-	*-	*-	*-	*-	*-
!!!OTL: Shapes Of Things
!!!COC: The Yardbirds
!!!BillboardChartDate: 1966/05/28
!!!BillboardPeak: 11
!!!BillboardWeeksOnChart: 11
!!!SampleTargetRank: 36
!!!SampleActualRank: 36
!!!SampleID#: 0990
!!!RDF**harmony: **recip + pitch class of root + harmonic quality
!!!RDF**harte: Chris Harte's syntax, used by MIREX
!!!RDF**phrase: newline = linebreak in original McGill transcription
!!!RDF**timestamp: McGill audio timestamp in seconds
!!!RDF**leadinstrument: original McGill primary instrumentation annotation
!!!RDT: 2017/01/12/
!!!ENC: Nathaniel Condit-Schultz
!!!EST: Awating manual error checking and editing.
